packages/design-assets/icons/24px/Users.svg

<?xml version="1.0" encoding="UTF-8"?>
<svg width="24px" height="24px" viewBox="0 0 24 24" version="1.1" xmlns="http://www.w3.org/2000/svg" xmlns:xlink="http://www.w3.org/1999/xlink">
    <!-- Generator: Sketch 54.1 (76490) - https://sketchapp.com -->
    <title>Icons/24px/Users</title>
    <desc>Created with Sketch.</desc>
    <g id="Icons/24px/Users" stroke="none" stroke-width="1" fill="none" fill-rule="evenodd">
        <path d="M15.7281347,10.7589293 C15.5815033,11.8611061 15.1368018,12.868109 14.4785736,13.6946294 L17.0332103,15.2389009 L22.0273702,15.2389009 L22.0273702,12.3128949 C22.0273702,11.9804695 21.8548895,11.6730317 21.5721901,11.5022647 L19.4515887,10.2183901 C18.7523511,10.6824218 17.915374,10.9524016 17.0159043,10.9524016 C16.5680544,10.9524016 16.1397737,10.8875063 15.7281347,10.7589293 L15.7281347,10.7589293 Z M15.7810381,8.65044765 C15.844158,8.66682008 15.9065982,8.68978233 15.9674903,8.71963757 C16.2991885,8.88226827 16.6380804,8.96192125 17.0159043,8.96192125 C18.3777243,8.96192125 19.4816915,7.84796412 19.4816915,6.47382086 L19.4816915,5.4785807 C19.4816915,4.10443744 18.3777243,2.99048031 17.0159043,2.99048031 C15.9960715,2.99048031 15.0954302,3.6161427 14.7242765,4.55314932 L14.7224115,4.55782396 C15.3897284,5.52446256 15.7810381,6.69953021 15.7810381,7.96668109 L15.7810381,8.65044765 L15.7810381,8.65044765 Z M13.2645772,3.07979534 C14.063353,1.80787786 15.4642059,1 17.0159043,1 C19.4671777,1 21.4543213,3.00512552 21.4543213,5.4785807 L21.4543213,6.47382086 C21.4543213,7.30091204 21.2321295,8.07563711 20.8446905,8.74053625 L22.5862529,9.79492979 C23.4635972,10.3248954 24,11.2810052 24,12.3128949 L24,16.2341411 C24,16.783797 23.5584118,17.2293812 23.0136851,17.2293812 L19.3014731,17.2293812 C19.5760052,17.7520301 19.7262976,18.3420614 19.7262976,18.9531372 L19.7262976,23.0047598 C19.7262976,23.5544158 19.2847094,24 18.7399827,24 L0.986314881,24 C0.441588214,24 0,23.5544158 0,23.0047598 L0,18.9531372 C0,17.6590284 0.673037948,16.4599483 1.77249364,15.7953971 L5.24772398,13.6946293 C4.43287771,12.6714476 3.94525952,11.3716778 3.94525952,9.9571614 L3.94525952,7.96668109 C3.94525952,4.66916706 6.59520676,1.99524016 9.86314881,1.99524016 C11.1290656,1.99524016 12.3022469,2.39648658 13.2645772,3.07979534 Z M6.80770883,15.0719561 L2.78621617,17.502938 C2.28172729,17.8078695 1.97262976,18.3585557 1.97262976,18.9531372 L1.97262976,22.0095197 L17.7536679,22.0095197 L17.7536679,18.9531372 C17.7536679,18.3594009 17.4443845,17.8083836 16.9400439,17.5029153 L12.9185888,15.0719561 C12.0266557,15.6156943 10.9810617,15.9286023 9.86314881,15.9286023 C8.7452359,15.9286023 7.69964193,15.6156943 6.80770883,15.0719561 L6.80770883,15.0719561 Z M9.86314881,13.938122 C12.0416375,13.938122 13.8084083,12.1553635 13.8084083,9.9571614 L13.8084083,7.96668109 C13.8084083,5.76847898 12.0416375,3.98572047 9.86314881,3.98572047 C7.68466009,3.98572047 5.91788929,5.76847898 5.91788929,7.96668109 L5.91788929,9.9571614 C5.91788929,12.1553635 7.68466009,13.938122 9.86314881,13.938122 Z" id="i-24-users" fill="#818F99"></path>
    </g>
</svg>

<svg width="24" height="24" xmlns="http://www.w3.org/2000/svg"><path d="M15.728 10.759a5.971 5.971 0 0 1-1.25 2.936l2.555 1.544h4.994v-2.926a.946.946 0 0 0-.455-.81l-2.12-1.285a4.39 4.39 0 0 1-3.724.54zm.053-2.109c.063.017.126.04.186.07.332.162.671.242 1.049.242a2.477 2.477 0 0 0 2.466-2.488v-.995a2.477 2.477 0 0 0-2.466-2.489c-1.02 0-1.92.626-2.292 1.563l-.002.005a5.98 5.98 0 0 1 1.059 3.409v.683zm-2.516-5.57A4.428 4.428 0 0 1 17.015 1c2.452 0 4.44 2.005 4.44 4.479v.995c0 .827-.223 1.602-.61 2.267l1.741 1.054A2.94 2.94 0 0 1 24 12.313v3.921a.99.99 0 0 1-.986.995H19.3c.275.523.425 1.113.425 1.724v4.052a.99.99 0 0 1-.986.995H.986A.99.99 0 0 1 0 23.005v-4.052c0-1.294.673-2.493 1.772-3.158l3.476-2.1a5.98 5.98 0 0 1-1.303-3.738v-1.99c0-3.298 2.65-5.972 5.918-5.972 1.266 0 2.44.401 3.402 1.085zM6.808 15.072l-4.022 2.43a1.694 1.694 0 0 0-.813 1.451v3.057h15.78v-3.057c0-.594-.309-1.145-.813-1.45l-4.021-2.431a5.85 5.85 0 0 1-3.056.857 5.85 5.85 0 0 1-3.055-.857zm3.055-1.134c2.179 0 3.945-1.783 3.945-3.98V7.966c0-2.199-1.766-3.981-3.945-3.981-2.178 0-3.945 1.782-3.945 3.98v1.991c0 2.198 1.767 3.981 3.945 3.981z" fill="#818F99" fill-rule="evenodd"/></svg>
